Unicodia/Resources/Scripts/0080.svg

<?xml version="1.0" encoding="UTF-8" standalone="no"?>
<!-- Created with Inkscape (http://www.inkscape.org/) -->

<svg
   width="16"
   height="16"
   viewBox="0 0 16 16"
   version="1.1"
   id="svg5"
   inkscape:version="1.2.1 (9c6d41e410, 2022-07-14)"
   sodipodi:docname="0080.svg"
   inkscape:export-filename="..\0080.png"
   inkscape:export-xdpi="96"
   inkscape:export-ydpi="96"
   xmlns:inkscape="http://www.inkscape.org/namespaces/inkscape"
   xmlns:sodipodi="http://sodipodi.sourceforge.net/DTD/sodipodi-0.dtd"
   xmlns="http://www.w3.org/2000/svg"
   xmlns:svg="http://www.w3.org/2000/svg">
  <sodipodi:namedview
     id="namedview7"
     pagecolor="#ffffff"
     bordercolor="#666666"
     borderopacity="1.0"
     inkscape:pageshadow="2"
     inkscape:pageopacity="0"
     inkscape:pagecheckerboard="0"
     inkscape:document-units="px"
     showgrid="true"
     width="16mm"
     units="px"
     inkscape:zoom="47.125"
     inkscape:cx="3.1193634"
     inkscape:cy="7.8514589"
     inkscape:window-width="1680"
     inkscape:window-height="998"
     inkscape:window-x="-8"
     inkscape:window-y="-8"
     inkscape:window-maximized="1"
     inkscape:current-layer="text1300"
     showguides="true"
     inkscape:guide-bbox="true"
     inkscape:snap-bbox="true"
     inkscape:bbox-paths="true"
     inkscape:bbox-nodes="true"
     inkscape:snap-global="true"
     inkscape:showpageshadow="2"
     inkscape:deskcolor="#ffffff">
    <inkscape:grid
       type="xygrid"
       id="grid828"
       originx="0"
       originy="0" />
    <sodipodi:guide
       position="2.1166666,4.4979165"
       orientation="1,0"
       id="guide835"
       inkscape:locked="false" />
    <sodipodi:guide
       position="3.7041665,2.1166666"
       orientation="0,-1"
       id="guide837"
       inkscape:locked="false" />
  </sodipodi:namedview>
  <defs
     id="defs2" />
  <g
     inkscape:label="Layer 1"
     inkscape:groupmode="layer"
     id="layer1">
    <g
       aria-label="ä"
       id="text1300"
       style="font-size:5.59863px;font-family:Cambria;-inkscape-font-specification:Cambria;text-align:center;letter-spacing:0px;word-spacing:0px;text-anchor:middle;fill:#204a87;stroke-width:0.261459"
       transform="matrix(3.8270571,0,0,3.8270571,0.29606611,-0.01255631)">
      <rect
         style="opacity:1;fill:#7fffff;fill-opacity:1;stroke:none;stroke-width:1.15953;stroke-linejoin:bevel;stop-color:#000000"
         id="rect691"
         width="4.180758"
         height="4.180758"
         x="-0.077361301"
         y="0.00328096" />
      <path
         d="m 2.3759193,3.5340907 c -0.041245,-0.024721 -0.065507,0.01208 -0.092704,0.040586 C 2.1020822,3.7517594 1.8853568,3.9084775 1.6302316,3.9520568 1.4015742,3.9923016 1.1443914,3.9661046 0.96076463,3.8124615 0.78682877,3.6711947 0.72464709,3.4304084 0.7571489,3.2149646 0.78253869,3.0161926 0.91563867,2.8455682 1.0839122,2.7433736 1.3403516,2.5849785 1.6425234,2.5245143 1.9375119,2.4860795 2.0676518,2.4701201 2.1984817,2.4601893 2.3294463,2.4542768 2.3278939,2.2278864 2.3420385,1.9935006 2.2561516,1.7791369 2.208517,1.6580189 2.1027644,1.5615809 1.9749268,1.532751 1.8035867,1.4933803 1.6054983,1.4994285 1.4604482,1.6096578 1.3506544,1.6962156 1.2883031,1.8281043 1.2496325,1.959476 c -0.1193718,0 -0.2387437,0 -0.35811554,0 0,-0.1184606 0,-0.2369211 0,-0.3553817 C 1.2151213,1.4328195 1.5642793,1.2922613 1.9331497,1.268142 c 0.209577,-0.010615 0.4378539,0.00338 0.6126011,0.1326332 0.1438629,0.1055661 0.2124079,0.2818685 0.2331391,0.4539714 0.027608,0.2064618 0.015187,0.4151518 0.01802,0.6227818 0.00104,0.3072927 -0.0026,0.6146381 0.00311,0.9218849 0.00785,0.098448 0.010998,0.2097703 0.080987,0.2869111 0.061737,0.061209 0.1498546,0.08041 0.2302717,0.1047344 0,0.044651 0,0.089301 0,0.1339519 -0.2496771,0 -0.4993542,0 -0.7490313,0 0.00456,-0.1303067 0.00911,-0.2606133 0.013669,-0.39092 z m -0.046473,-0.85565 C 2.0639116,2.6833765 1.7908542,2.7004596 1.5432429,2.8046838 1.4001006,2.864229 1.2691791,2.9797764 1.2355074,3.1366061 1.2110394,3.2578884 1.2156846,3.3949149 1.2851704,3.5012862 1.346814,3.5977366 1.4589598,3.6459948 1.5698738,3.6544268 1.7414391,3.6762652 1.9221286,3.6387527 2.061874,3.5340693 2.2244496,3.4202444 2.3411711,3.2267936 2.3294462,3.0244028 c 0,-0.1153207 10e-8,-0.2306414 10e-8,-0.3459621 z"
         id="path2501"
         style="stroke-width:0.261459" />
      <path
         d="M 2.5727461,0.26457831 V 0.74571057 H 2.1162172 V 0.26457831 Z m -0.9852462,0 V 0.74571057 H 1.130971 V 0.26457831 Z"
         id="path2498"
         sodipodi:nodetypes="cccccccccc"
         style="stroke-width:0.261459" />
    </g>
  </g>
</svg>

<svg height="16" viewBox="0 0 16 16" width="16" xmlns="http://www.w3.org/2000/svg"><g fill="#204a87" stroke-width=".26" transform="matrix(3.8271 0 0 3.8271 .3 -.01)"><path d="m-.08 0h4.18v4.18h-4.18z" fill="#7fffff"/><g stroke-width=".26"><path d="m2.38 3.53c-.04-.02-.07.01-.09.04-.19.18-.4.34-.66.38-.23.04-.49.02-.67-.14-.17-.14-.24-.38-.2-.6.02-.19.16-.36.32-.47.26-.16.56-.22.86-.25.13-.02.26-.03.39-.04 0-.22.01-.46-.07-.67-.05-.12-.16-.22-.29-.25-.17-.04-.36-.03-.51.08-.11.09-.17.22-.21.35-.12 0-.24 0-.36 0 0-.12 0-.24 0-.36.33-.17.67-.31 1.04-.33.21-.01.44 0 .61.13.14.11.21.28.23.45.03.21.02.42.02.62v.92c.01.1.01.21.08.29.06.06.15.08.23.1v.13c-.25 0-.5 0-.75 0 0-.13.01-.26.01-.39zm-.05-.86c-.27.01-.54.03-.79.13-.14.06-.27.18-.3.34-.03.12-.02.25.05.36.06.1.17.15.28.15.17.03.35-.01.49-.12.16-.11.28-.3.27-.51 0-.12 0-.23 0-.35z"/><path d="m2.57.26v.49h-.45v-.49zm-.99 0v.49h-.45v-.49z"/></g></g></svg>
